!!!!SEGMENT: pl-kk--kk-i-66--003_anonim--missa-et-in-terra.krn
!!!cenid: 17xx:2260
!!!COM: Anonim
!!!COM-rismID: pe30004985
!!!CDT:
!!!CNT:
!!!OPR: Missa
!!!OTL: Et in terra
!!!OMV: 003
!!!PDT:
!!!AGN: Sacred; Mass
!!!SMS-siglum: PL-Kk
!!!SMS-shelfmark: Kk.I.66
!!!SMS-shelfwork: 001-003 M
!!!SMS-variant:
!!!SMS-altvar:
!!!NIFC-rismSourceID: 1001154622
!!!NIFC-rismChildID: 1001154622
!!!NIFC-islandoraID: pl-kk:2804
!!!URL-pdf-islandora: https://repozytorium.nifc.pl/islandora/object/pl-kk%3A2804/datastream/PDF/view
!!!URL-scan: https://polish.musicsources.pl/pl/lokalizacje/galeria/rekopisy/6137 @EN{Scan on Polish Music Sources Website} @PL{Skany w portalu Dziedzictwo Muzyki Polskiej w otwartym dostępie}
!!!ONB-nifc: UWAGA: części Mszy: 1. Salve sancta parens, 2. Kyrie, 3. Et in terra, 4. Alleluia virga jesse floruit, 5. Beata es virgo Maria, 6. Sanctus, 7. Agnus Dei, 8. Dona nobis, 9. Deo gratias
!!!AIN: 1 empty 2 tenor
!!!key:
**kern	**text	**kern	**text	**kern	**text
*part3	*part3	*part2	*part2	*part1	*part1
*staff3	*staff3	*staff2	*staff2	*staff1	*staff1
*Iempty	*	*Itenor	*	*Itenor	*
*I"Baſso	*	*I"Tenore Secundo	*	*I"Tenore Primo	*
*I'B	*	*I'T 2	*	*I'T 1	*
*clefF4	*	*clefC4	*	*clefC4	*
*k[]	*	*k[]	*	*k[]	*
*C:	*	*C:	*	*C:	*
*M2/2	*	*M2/2	*	*M2/2	*
*met(C|)	*	*met(C|)	*	*met(C|)	*
=1	=1	=1	=1	=1	=1
!LO:TX:t=P:problem=partia basu zapisana na podstawie skanu 0012-0013 (ustalone z EZ)	!	!	!	!LO:TX:t=P:problem=2\right&colon; global	!
*	*	*	*	*2\right	*
2C/	Et	2G/	Et	2e\	Et
2C/	in	2G/	in	2e\	in
=2	=2	=2	=2	=2	=2
*2\right	*	*2\right	*	*	*
2G\	ter-	2B\	ter-	2d\	ter-
2c\	-ra	2c\	-ra	2e\	-ra
=3	=3	=3	=3	=3	=3
2G\	pax	4d\	pax	4f\	pax
.	.	4c\	.	4e\	.
2G\	ho-	4d\	ho-	4f\	ho-
.	.	4B\	.	4d\	.
=4	=4	=4	=4	=4	=4
4C/	-mi-	4G/	-mi-	4e\	-mi-
4C/	-ni-	4G/	-ni-	4e\	-ni-
2C/	-bus	2G/	-bus	2e\	-bus
=5	=5	=5	=5	=5	=5
2G\	bo-	2B\	bo-	2d\	bo-
2G\	-nae	2c\	-nae	2e\	-nae
=6	=6	=6	=6	=6	=6
2G\	vo-	2B\	vo-	2d\	vo-
2F#X\	-lun-	2A\	-lun-	2c\	-lun-
=7	=7	=7	=7	=7	=7
4G\	-ta-	1G/	-ta-	1B\	-ta-
4A\	.	.	.	.	.
4B\	.	.	.	.	.
4c\	.	.	.	.	.
=8	=8	=8	=8	=8	=8
2d\	.	1F#X/	.	1A\	.
2D/	.	.	.	.	.
!LO:LB:g=original	!	!LO:LB:g=original	!	!LO:LB:g=original	!
=9	=9	=9	=9	=9	=9
2G\	-tis	2G/	-tis,	2B\	-tis,
2G\	Lau-	4G/	Lau-	4B\	Lau-
.	.	4A/	.	4c\	.
=10	=10	=10	=10	=10	=10
2G\	-da-	4B/	-da-	4d\	-da-
.	.	4c\	.	4e\	.
2G\	-mus	4d\	.	4f\	.
.	.	4B\	-mus	4d\	-mus
=11	=11	=11	=11	=11	=11
2c\	te	2c\	te,	2e\	te,
4E\	be-	4c\	be-	4e\	be-
4D\	-ne-	4d\	-ne-	4f\	-ne-
=12	=12	=12	=12	=12	=12
2C/	-di-	2e\	-di-	2g\	-di-
4F\	-ci-	4d\	-ci-	4f\	-ci-
4F#X\	-mus	4c\	-mus	4e\	-mus
=13	=13	=13	=13	=13	=13
2G\	te	2B\	te	2d\	te
4G\	a-	4B\	a-	4d\	a-
4G\	-do-	4c\	-do-	4e\	-do-
=14	=14	=14	=14	=14	=14
2G\	-ra-	4d\	-ra-	4f\	-ra-
.	.	4c\	.	4e\	.
2G\	-mus	4B\	.	4d\	.
.	.	4d\	-mus	4f\	-mus
!	!	!	!	!LO:PB:g=original	!
=15	=15	=15	=15	=15	=15
2c\	te	2c\	te,	2e\	te,
4E\	glo-	4c\	glo-	4e\	glo-
4D\	.	4d\	.	4f\	.
!LO:LB:g=original	!	!LO:PB:g=original	!	!	!
=16	=16	=16	=16	=16	=16
4C\	-ri-	4e\	-ri-	4g\	-ri-
4D\	.	4d\	.	4f\	.
4E\	.	4c\	.	4e\	-fi-
4F\	-fi-	4B\	-fi-	4d\	.
=17	=17	=17	=17	=17	=17
2G\	-ca-	2c\	-ca-	2e\	-ca-
2G\	-mus	2B\	-mus	2d\	-mus
=18	=18	=18	=18	=18	=18
1C/	te	1c\	te.	1e\	te.
=19||	=19||	=19||	=19||	=19||	=19||
2C/	Gra-	2e\	Gra-	2g\	Gra-
4D\	-ti-	4d\	-ti-	4f\	-ti-
4E\	-as	4c\	-as	4e\	-as
=20	=20	=20	=20	=20	=20
2G\	a-	2d\	a-	2f\	a-
4G\	-gi-	4c\	-gi-	4e\	-gi-
4G\	-mus	4B\	-mus	4d\	-mus
=21	=21	=21	=21	=21	=21
2C/	a-	4c\	a-	4e\	a-
.	.	4e\	.	4g\	.
4F\	-gi-	4d\	-gi-	4f\	-gi-
4F#X\	-mus	4c\	-mus	4e\	-mus
!	!	!	!	!LO:LB:g=original	!
=22	=22	=22	=22	=22	=22
2G\	ti-	2c\	ti-	2e\	ti-
2G\	-bi	2B\	-bi	2d\	-bi
!LO:PB:g=originalLO:LB:g=original	!	!LO:LB:g=original	!	!	!
=23	=23	=23	=23	=23	=23
2G\	pro-	4G/	pro-	4B\	pro-
.	.	4A/	.	4c\	.
2G\	-pter	4B\	-ter	4d\	-ter
.	.	4c\	.	4e\	.
=24	=24	=24	=24	=24	=24
2G\	ma-	4d\	ma-	4f\	ma-
.	.	4c\	.	4e\	.
2G\	-gnam	4B\	-gnam	4d\	-gnam
.	.	4d\	.	4f\	.
=25	=25	=25	=25	=25	=25
4C/	glo-	4c\	glo-	4e\	glo-
4D/	.	4B\	.	4f\	.
4E/	-ri-	4c\	-ri-	4e\	-ri-
4F/	-am	4B\	-am	4d\	-am
=26	=26	=26	=26	=26	=26
1G\	tu-	2e\	tu-	2c\	tu-
.	.	2B\	.	2d\	.
=27	=27	=27	=27	=27	=27
1C/	-am	1c\	-am,	1e\	-am
=28	=28	=28	=28	=28	=28
2C/	Do-	2G/	Do-	2e\	Do-
4c\	-mi-	4G/	-mi-	4e\	-mi-
4c\	-ne	4G/	-ne	4e\	-ne
!	!	!	!	!LO:LB:g=original	!
=29	=29	=29	=29	=29	=29
2B\	De-	2G/	De-	2d\	De-
2B\	-us	2G/	-us	2d\	-us
!	!	!LO:LB:g=original	!	!	!
=30	=30	=30	=30	=30	=30
2.G\	rex	2.d\	rex	2.f\	rex
4G\	cae-	4d\	cae-	4f\	cae-
=31	=31	=31	=31	=31	=31
2c\	-les-	2G/	-les-	2e\	-les-
2C/	-tis	2G/	-tis	2e\	-tis
!LO:LB:g=original	!	!	!	!	!
=32	=32	=32	=32	=32	=32
2.c\	De-	2.e\	De-	2.g\	De-
4c\	-us	4e\	-us	4g\	-us
=33	=33	=33	=33	=33	=33
2B\	pa-	2d\	pa-	2f\	pa-
4c\	-ter	4c\	-ter	4e\	-ter
4c\	om-	4c\	om-	4e\	om-
=34	=34	=34	=34	=34	=34
2G\	-ni-	2B\	-ni-	2d\	-ni-
2D\	-po-	2A\	-po-	2c\	-po-
=35	=35	=35	=35	=35	=35
1G\	-ten	1G/	-tens,	1B\	-tens,
=36	=36	=36	=36	=36	=36
4G\	Do-	2B\	Do-	2d\	Do-
4A\	.	.	.	.	.
4B\	-mi-	4B\	-mi-	4d\	-mi-
4G\	-ne	4B\	-ne	4d\	-ne
!	!	!	!	!LO:LB:g=original	!
=37	=37	=37	=37	=37	=37
4c\	fi-	2c\	fi-	2e\	fi-
4G\	.	.	.	.	.
4E\	.	2c\	-li	2e\	-li
4C\	-li	.	.	.	.
!	!	!LO:LB:g=original	!	!	!
=38	=38	=38	=38	=38	=38
2.G\	u-	2.d\	u-	2.f\	u-
4G\	-ni	4B\	-ni-	4d\	-ni-
=39	=39	=39	=39	=39	=39
4E\	ge-	4c\	-ge-	4e\	-ge-
4D\	-ni-	4c\	-ni-	4e\	-ni-
2C/	-te	2c\	-te	2e\	-te
!LO:LB:g=original	!	!	!	!	!
=40	=40	=40	=40	=40	=40
2C/	Je-	4e\	Je-	4g\	Je-
.	.	4f\	.	4a\	.
4E\	.	4e\	-su	4g\	-su
4F\	-su	4d\	.	4f\	.
=41	=41	=41	=41	=41	=41
1G\	Chri-	2c\	Chri-	2e\	Chri-
.	.	2B\	.	2d\	.
=42	=42	=42	=42	=42	=42
1C/	-ste,	1G/	-ste,	1c\	-ste,
=43	=43	=43	=43	=43	=43
2c\	Do-	2e\	Do-	2g\	Do-
4c\	-mi-	4e\	-mi-	4g\	-mi-
4G\	-ne	4d\	-ne	4f\	-ne
!	!	!	!	!LO:LB:g=original	!
=44	=44	=44	=44	=44	=44
4E/	De-	4c\	De-	4e\	De-
4D/	.	4d\	.	4f\	.
2C/	-us	2e\	-us	2g\	-us
!	!	!LO:LB:g=original	!	!	!
=45	=45	=45	=45	=45	=45
2G\	ag-	4d\	a-	4f\	a-
.	.	4c\	.	4e\	.
2G\	-nus	4d\	-gnus	4f\	-gnus
.	.	4c\	.	4e\	.
=46	=46	=46	=46	=46	=46
2G\	De-	2B\	De-	2d\	De-
2G\	-i	2B\	-i	2d\	-i
=47	=47	=47	=47	=47	=47
2C/	fi-	2g\	fi-	2e\	fi-
4D/	-lius	4f\	-lius	4d\	-lius
4E/	.	4e\	.	4c\	.
!LO:LB:g=original	!	!	!	!	!
=48	=48	=48	=48	=48	=48
2G\	Pa-	2d\	Pa-	2B\	Pa-
2E\	.	2e\	.	2c\	.
=49	=49	=49	=49	=49	=49
1G\	.	1d\	.	2c\	.
.	.	.	.	2B\	.
=50	=50	=50	=50	=50	=50
1C/	-tris	1e\	-tris	1c\	-tris
!LO:LB:g=original	!	!LO:LB:g=original	!	!LO:LB:g=original	!
=51||	=51||	=51||	=51||	=51||	=51||
*M3/2	*	*M3/2	*	*M3/2	*
2r	.	2r	.	2r	.
2r	.	2r	.	2r	.
2A\	Qui	2c\	Qui	2e\	Qui
=52	=52	=52	=52	=52	=52
4G#X\	tol-	4B\	tol-	2e\	tol-
4F#X\	.	4A\	.	.	.
4E\	-lis	4G#X\	-lis	2e\	-lis
4F#\	.	4A\	.	.	.
4G#\	pec-	4B\	pec-	2e\	pec-
4E\	.	4G#\	.	.	.
=53	=53	=53	=53	=53	=53
2A\	-ca-	2c\	-ca-	2e\	-ca-
2B\	-ta	2d\	-ta	2e\	ta
2A\	pec-	2c\	pec-	2e\	pec-
=54	=54	=54	=54	=54	=54
4A\	-ca-	4c\	-ca-	1e\	-ca-
4G#X\	.	4B\	.	.	.
4B\	.	4d\	.	.	.
4A\	.	4c\	.	.	.
4G#\	-ta	4B\	-ta	2e\	-ta
4A\	.	4c\	.	.	.
=55	=55	=55	=55	=55	=55
2E\	mun-	2A/	mun-	2c\	mun-
2E\	-di	2G#X/	-di	2B\	-di
2r	.	2r	.	2r	.
!LO:LB:g=original	!	!LO:LB:g=original	!	!	!
=56	=56	=56	=56	=56	=56
1E\	mi-	1G#X/	mi-	1B\	mi-
2E\	-se-	2A/	-se-	2c\	-se-
=57	=57	=57	=57	=57	=57
1E\	-re-	1B\	-re-	1d\	-re-
2A\	-re	2A/	-re	2c\	-re
!	!	!	!	!LO:LB:g=original	!
=58	=58	=58	=58	=58	=58
2D\	no-	2B/	no-	2d\	no-
1E\	.	2A/	.	2c\	.
.	.	2G#X/	.	2B\	.
=59	=59	=59	=59	=59	=59
2AA/	-bis	2E/	-bis	2c\	-bis,
2r	.	2r	.	2r	.
2A\	qui	2e\	qui	2c\	qui
=60	=60	=60	=60	=60	=60
2G#X\	tol-	2e\	tol-	2B\	tol-
2E\	-lis	2e\	-lis	2G#X/	-lis
2G#\	pec-	2e\	pec-	2B\	pec-
=61	=61	=61	=61	=61	=61
2A\	-ca-	1e\	-ca-	2c\	-ca-
2G\	.	.	.	2B\	.
2A\	-ta	2e\	-ta	2c\	-ta
=62	=62	=62	=62	=62	=62
1G#X\	mun-	1.e\	mun-	1B\	mun-
2A\	.	.	.	2c\	.
!LO:LB:g=original	!	!	!	!	!
=63	=63	=63	=63	=63	=63
1E\	-di	1e\	-di	1B\	-di
2r	.	2r	.	2r	.
!	!	!LO:LB:g=original	!	!	!
=64	=64	=64	=64	=64	=64
4C/	sus-	2.Gn/	sus-	2.e\	sus-
4E/	.	.	.	.	.
4G/	-ci-	.	.	.	.
4E/	.	4G/	-ci-	4e\	-ci-
2C/	-pe	2G/	-pe	2e\	-pe
!	!	!	!	!LO:LB:g=original	!
=65	=65	=65	=65	=65	=65
1G\	de-	1d\	de-	1f\	de-
2c\	-pre-	2c\	-pre-	2e\	-pre-
=66	=66	=66	=66	=66	=66
1G\	-ca-	1B\	-ca-	1d\	-ca-
2E\	-ti-	2G/	-ti-	2c\	-ti-
=67	=67	=67	=67	=67	=67
1G\	-o-	1B\	-o-	1d\	-o-
2c\	-nem	2G/	-nem	2e\	-nem
=68	=68	=68	=68	=68	=68
2F\	no-	2A\	no-	2d\	no-
1G\	.	2e\	.	2c\	.
.	.	2d\	.	2B\	.
=69	=69	=69	=69	=69	=69
1C/	-stram	1e\	-stram,	1c\	-stram
4C/	qui	2e\	qui	2c\	qui
4E/	.	.	.	.	.
!LO:LB:g=original	!	!	!	!	!
=70	=70	=70	=70	=70	=70
2G\	se-	2B\	se-	2d\	se-
4G\	-des	2B\	-des	2d\	-des
4A\	.	.	.	.	.
4B\	qui	2B\	qui	2d\	qui
4G\	.	.	.	.	.
=71	=71	=71	=71	=71	=71
2c\	se-	2G/	se-	2e\	se-
2c\	-des	2G/	-des	2e\	-des
2c\	ad	2G/	ad	2e\	ad
!	!	!LO:LB:g=original	!	!LO:LB:g=original	!
=72	=72	=72	=72	=72	=72
2.G\	dex-	4B\	dex-	4d\	dex-
.	.	4c\	.	4e\	.
.	.	4d\	.	4f\	.
4G\	-te-	4c\	-te-	4e\	-te-
2G\	-ram	4d\	-ram	4f\	-ram
.	.	4B\	.	4d\	.
=73	=73	=73	=73	=73	=73
1G\	Pa-	2c\	Pa-	2e\	Pa-
.	.	2B\	.	2d\	.
2F#X\	.	2A/	.	2c\	.
=74	=74	=74	=74	=74	=74
2G\	-tris	2G/	-tris	2B\	-tris
2G\	mi-	2G/	mi-	2B\	mi-
2F#X\	-se-	2A/	-se-	2c\	-se-
=75	=75	=75	=75	=75	=75
1Fn\	-re-	1B\	-re-	1d\	-re-
2E\	-re	2c\	-re	2e\	-re
!LO:LB:g=original	!	!	!	!	!
=76	=76	=76	=76	=76	=76
2F\	no-	2f\	no-	2d\	no-
2G\	.	2e\	.	2c\	.
2GG/	.	2d\	.	2B\	.
=77	=77	=77	=77	=77	=77
1.C/	-bis	1.e\	-bis	1.c\	-bis
!LO:PB:g=originalLO:LB:g=original	!	!LO:PB:g=original	!	!LO:PB:g=original	!
=78||	=78||	=78||	=78||	=78||	=78||
*M2/2	*	*M2/2	*	*M2/2	*
*met(C|)	*	*met(C|)	*	*met(C|)	*
4C/	Quo-	4G/	Quo-	4e\	Quo-
4BB/	-ni-	4G/	-ni-	4d\	-ni-
4E/	-am	4G/	-am	4c\	-am
4D/	tu	4G/	tu	4d\	tu
=79	=79	=79	=79	=79	=79
4C/	so-	2G/	so-	4e\	so-
4BB/	.	.	.	4d\	.
4C/	-lus	4G/	-lus	4e\	-lus
4C/	tu	4G/	tu	4e\	tu
=80	=80	=80	=80	=80	=80
2C/	so-	4c\	so-	4e\	so-
.	.	8B\L	.	8d\L	.
.	.	8c\J	.	8e\J	.
4F\	.	4d\	.	4f\	.
4F#X\	-lus	4c\	-lus	4e\	-lus
=81	=81	=81	=81	=81	=81
2G\	san-	2c\	san-	2e\	San-
2G\	-ctus	2B\	-ctus	2d\	-ctus
=82	=82	=82	=82	=82	=82
2r	.	2r	.	2r	.
2G\	tu	4B\	tu	4d\	tu
.	.	4c\	.	4e\	.
=83	=83	=83	=83	=83	=83
2G\	so-	4d\	so-	4f\	so-
.	.	8c\L	.	8e\L	.
.	.	8d\J	.	8f\J	.
2G\	-lus	4e\	.	4g\	.
.	.	4d\	-lus	4f\	-lus
!	!	!LO:LB:g=original	!	!LO:LB:g=original	!
=84	=84	=84	=84	=84	=84
4c\	Do-	4d\	Do-	4f\	Do-
4C/	-mi-	4c\	-mi-	4e\	-mi-
2C/	-nus	2c\	-nus	2e\	-nus
!LO:LB:g=original	!	!	!	!	!
=85	=85	=85	=85	=85	=85
2r	.	2r	.	2r	.
2C/	tu	4c\	tu	4e\	tu
.	.	4d\	.	4f\	.
=86	=86	=86	=86	=86	=86
2C/	so-	2e\	so-	2g\	so-
4D/	-lus	4d\	-lus	4f\	-lus
4E/	al-	4c\	al-	4e\	al-
=87	=87	=87	=87	=87	=87
2G\	-tiſ-	2B\	-tiſ-	2d\	-tiſ-
2F#X\	-si-	2A\	-si-	2c\	-si-
=88	=88	=88	=88	=88	=88
1G\	-mus	1B\	-mus	1d\	-mus
=89	=89	=89	=89	=89	=89
2G\	Je-	2B\	Je-	2d\	Je-
2c\	-su	2G/	-su	2e\	-su
=90	=90	=90	=90	=90	=90
2G\	Je-	2d\	Je-	2f\	Je-
2E\	-su	2c\	-su	2e\	-su
=91	=91	=91	=91	=91	=91
1G\	Chris-	1B\	Chris-	1d\	Chris-
!	!	!LO:LB:g=original	!	!	!
=92	=92	=92	=92	=92	=92
2C/	-te,	2c\	-te	2e\	-te
2C/	cum	2c\	cum	2e\	Cum
!	!	!	!	!LO:LB:g=original	!
=93	=93	=93	=93	=93	=93
2G\	San-	4B\	san-	4d\	San-
.	.	4c\	.	4e\	.
2G\	-cto	4B\	-cto	4d\	-cto
.	.	4A\	.	4c\	.
!LO:LB:g=original	!	!	!	!	!
=94	=94	=94	=94	=94	=94
2.G\	Spi-	2.G/	spi-	2.B\	spi-
4D\	-ri-	4A/	-ri-	4c\	-ri-
=95	=95	=95	=95	=95	=95
2G\	-tu	2B\	-tu	2d\	-tu
2c\	in	2c\	in	2e\	in
=96	=96	=96	=96	=96	=96
4B\	glo-	4d\	glo-	4f\	glo-
4B\	-ri-	4d\	-ri-	4f\	-ri-
2c\	-a	2c\	-a	2e\	-a
=97	=97	=97	=97	=97	=97
2G\	De-	4B\	De-	4d\	De-
.	.	4d\	.	4f\	.
2G\	-i	4c\	.	4e\	.
.	.	4B\	-i	4d\	-i
=98	=98	=98	=98	=98	=98
4E\	Pa-	4c\	Pa-	4e\	Pa-
4D\	.	4d\	.	4f\	.
4C\	-tris	4e\	-tris	4g\	-tris
4F\	.	4d\	.	4f\	.
=99	=99	=99	=99	=99	=99
2G\	a-	2c\	a-	2e\	a-
2GG/	.	2B\	.	2d\	.
=100	=100	=100	=100	=100	=100
1C/	-men	1G/	-men	1e\	-men
==	==	==	==	==	==
*-	*-	*-	*-	*-	*-
!!!system-decoration: s1,s2,s3
!!!EED: Andrzej Borzym
!!!EEV: 2021-08-08
!!!ENC: Anastazja Marusiak
!!!END: 2021-07-07
!!!YEC: Copyright 2022 Narodowy Instytut Fryderyka Chopina (https://polishscores.org)
!!!YEM: License CC-BY-4.0 (https://creativecommons.org/licenses/by/4.0)
